icons/desktop/16/svg/fingerprinter-16.svg

<svg width="16" height="16" viewBox="0 0 16 16" fill="none" xmlns="http://www.w3.org/2000/svg">
<path d="M0.219727 1.22013C0.512727 0.927134 0.98825 0.927134 1.28125 1.22013L14.7812 14.7201C15.074 15.013 15.0739 15.4877 14.7812 15.7807C14.6353 15.9267 14.443 16.0014 14.251 16.0014L14.25 16.0004C14.058 16.0004 13.8657 15.9267 13.7197 15.7797L12.8096 14.8695C12.7065 15.0077 12.6011 15.1484 12.4902 15.2895L12.1172 15.7504C11.9803 15.9013 11.7862 16.0003 11.5664 16.0004C11.1525 16.0004 10.8166 15.6643 10.8164 15.2504C10.8164 15.0805 10.8826 14.9311 10.9775 14.8051L11.3105 14.3598C11.4588 14.1713 11.5995 13.9828 11.7363 13.7963L10.665 12.725C9.76935 13.9132 8.48717 15.0255 6.64355 15.7465L6.20508 15.936C6.10815 15.9779 6.00813 15.9984 5.9082 15.9985C5.61825 15.9985 5.34175 15.8293 5.21973 15.5453C5.05573 15.1653 5.2313 14.724 5.6123 14.56L6.0752 14.3598C7.71141 13.7196 8.82395 12.7131 9.58594 11.6459L8.66309 10.7231C7.65581 12.3855 5.83282 13.5004 3.75 13.5004H0.75C0.336123 13.5004 0.00019962 13.1642 0 12.7504C0 12.3364 0.336 12.0004 0.75 12.0004H3.75C5.42399 12.0004 6.86501 11.0243 7.55371 9.61369L6.30371 8.36369C5.84814 9.60893 4.65102 10.5004 3.25 10.5004H0.75C0.336125 10.5004 0.000202714 10.1642 0 9.75041C0 9.33641 0.336 9.00041 0.75 9.00041H3.24902C4.21389 9.00039 4.99882 8.21523 4.99902 7.25041L5 7.05998L3.25879 5.31877C3.10926 5.76411 3.00126 6.24342 2.94238 6.75627C2.93226 7.16105 2.6021 7.48754 2.19434 7.48771C1.78134 7.48771 1.44831 7.15459 1.44531 6.74259C1.53876 5.80369 1.76659 4.9419 2.10938 4.16935L0.219727 2.2797C-0.0729132 1.98674 -0.0729907 1.51305 0.219727 1.22013Z" fill="black"/>
<path d="M6.63281 0.304118C9.72778 -0.478874 13.177 0.802995 14.834 3.35295C15.833 4.89095 16.8787 7.95401 14.3447 12.517L13.2412 11.4135C14.6951 8.60563 14.828 6.09829 13.5762 4.17033C12.2592 2.14133 9.48898 1.13022 7.00098 1.75822C6.13001 1.97922 5.37865 2.381 4.76367 2.93498L3.70996 1.88127C4.51091 1.13731 5.49291 0.593132 6.63281 0.304118Z" fill="black"/>
<path d="M6.57617 3.50138C7.40505 2.96946 8.42068 2.76721 9.43652 2.93107C11.5655 3.27307 13.0434 5.13451 12.7314 7.07951C12.7322 7.1604 12.6738 8.5356 12.04 10.2113L10.8574 9.02775C11.1983 7.89295 11.2382 7.0259 11.2412 6.93791C11.4311 5.71207 10.511 4.62262 9.19922 4.41252C8.55122 4.30752 7.90477 4.43206 7.38477 4.76506C7.22084 4.87004 7.0839 4.99729 6.96094 5.13224L5.90137 4.07072C6.10027 3.86086 6.32033 3.66529 6.57617 3.50138Z" fill="black"/>
<path d="M8.75 6.25041C9.164 6.25041 9.5 6.58641 9.5 7.00041V7.67131L8.2666 6.43791C8.39759 6.32491 8.56301 6.25041 8.75 6.25041Z" fill="black"/>
</svg>

<!-- This Source Code Form is subject to the terms of the Mozilla Public
   - License, v. 2.0. If a copy of the MPL was not distributed with this
   - file, You can obtain one at http://mozilla.org/MPL/2.0/. -->
<svg xmlns="http://www.w3.org/2000/svg" width="16" height="16" fill="context-fill" fill-opacity="context-fill-opacity" viewBox="0 0 16 16">
    <path d="M.22 1.22a.75.75 0 0 1 1.061 0l13.5 13.5a.75.75 0 0 1-.53 1.281h-.001a.75.75 0 0 1-.53-.221l-.91-.91q-.155.207-.32.42l-.373.46a.743.743 0 0 1-1.3-.5c0-.17.066-.319.16-.445l.333-.445q.223-.284.426-.564l-1.071-1.071c-.896 1.188-2.178 2.3-4.021 3.021l-.439.19a.747.747 0 0 1-.985-.39.75.75 0 0 1 .392-.986l.463-.2c1.636-.64 2.749-1.647 3.51-2.714l-.922-.923A5.74 5.74 0 0 1 3.75 13.5h-3a.75.75 0 0 1 0-1.5h3a4.23 4.23 0 0 0 3.804-2.386l-1.25-1.25A3.26 3.26 0 0 1 3.25 10.5H.75a.75.75 0 0 1 0-1.5h2.499c.965 0 1.75-.785 1.75-1.75L5 7.06 3.259 5.319q-.227.667-.317 1.437a.75.75 0 0 1-1.497-.013c.094-.94.322-1.801.664-2.574L.22 2.28a.75.75 0 0 1 0-1.059M6.633.304c3.095-.783 6.544.499 8.201 3.049.999 1.538 2.045 4.601-.49 9.164l-1.103-1.103c1.454-2.808 1.587-5.316.335-7.244C12.26 2.141 9.49 1.13 7.001 1.758a5.2 5.2 0 0 0-2.237 1.177L3.71 1.881A6.65 6.65 0 0 1 6.633.304" />
    <path d="M6.576 3.501c.83-.532 1.845-.734 2.86-.57 2.13.342 3.607 2.204 3.295 4.149.001.08-.057 1.456-.691 3.131l-1.183-1.183c.341-1.135.381-2.002.384-2.09.19-1.226-.73-2.315-2.042-2.525a2.6 2.6 0 0 0-1.814.352c-.164.105-.301.232-.424.367L5.9 4.071a3.6 3.6 0 0 1 .675-.57" />
    <path d="M8.75 6.25A.75.75 0 0 1 9.5 7v.671L8.267 6.438a.74.74 0 0 1 .483-.188" />
</svg>
